svgs/sharp-solid/superscript.svg

<svg xmlns="http://www.w3.org/2000/svg" viewBox="0 0 512 512"><!--! Font Awesome Pro 6.6.0 by @fontawesome - https://fontawesome.com License - https://fontawesome.com/license (Commercial License) Copyright 2024 Fonticons, Inc. --><path d="M384 0l32 0 32 0 32 0 0 32 0 128 32 0 0 64-32 0-64 0-32 0 0-64 32 0 0-96-32 0 0-64zM0 64l32 0 32 0 16.7 0 9.6 13.6L176 200.2 261.8 77.6 271.3 64 288 64l32 0 32 0 0 64-32 0-15.3 0L215.1 256l89.6 128 15.3 0 32 0 0 64-32 0-32 0-16.7 0-9.6-13.6L176 311.8 90.2 434.4 80.7 448 64 448l-32 0L0 448l0-64 32 0 15.3 0 89.6-128L47.3 128 32 128 0 128 0 64z"/></svg>

<svg xmlns="http://www.w3.org/2000/svg" viewBox="0 0 512 512"><!--! Font Awesome Pro 6.4.2 by @fontawesome - https://fontawesome.com License - https://fontawesome.com/license (Commercial License) Copyright 2023 Fonticons, Inc. --><path d="M384 0h32 32 32V32 160h32v64l-32 0H416l-32 0V160h32V64H384V0zM0 64H32 64 80.7l9.6 13.6L176 200.2 261.8 77.6 271.3 64H288h32 32v64H320 304.7L215.1 256l89.6 128H320h32v64H320 288 271.3l-9.6-13.6L176 311.8 90.2 434.4 80.7 448H64 32 0V384H32 47.3l89.6-128L47.3 128H32 0V64z"/></svg>
